X:66
T:It's three o'Clock We'll have t'other Dance
M:C|
L:1/8
B:Thompson's Compleat Collection of 200 Favourite Country Dances, vol. 1 (London, 1757)
Z:Transcribed and edited by Fynnian Titford-Mock, 2007
Z:abc's:AK/Fiddler's Companion
K:G
G2 Bd g>agB|AGAB (A/G/A/B/) AD|G2 Bd g>agB|AGAB GG/G/ G2:|
|:g>agd (g/f/g/a/) gd|g>agB (A/G/A/B/) AD|g>agd (g/f/g/a/) gd|(e/f/g)dB G/G/G G2:|

